src/assets/images/github-planet-3.svg

<svg height="124" viewBox="0 0 123 124" width="123" xmlns="http://www.w3.org/2000/svg" xmlns:xlink="http://www.w3.org/1999/xlink"><defs><path id="a" d="m20.0857631 76.959813c0 34.117422 27.3133649 61.774917 61.0062783 61.774917 33.6929136 0 61.0062786-27.657495 61.0062786-61.774917 0-34.1174219-27.313365-61.7749172-61.0062786-61.7749172-33.6929134 0-61.0062783 27.6574953-61.0062783 61.7749172z"/><filter id="b" height="108.1%" width="108.2%" x="-4.1%" y="-4%"><feOffset dx="-1" dy="-10" in="SourceAlpha" result="shadowOffsetInner1"/><feComposite in="shadowOffsetInner1" in2="SourceAlpha" k2="-1" k3="1" operator="arithmetic" result="shadowInnerInner1"/><feColorMatrix in="shadowInnerInner1" type="matrix" values="0 0 0 0 0   0 0 0 0 0   0 0 0 0 0  0 0 0 0.16553442 0"/></filter></defs><g fill="none" fill-rule="evenodd" transform="translate(-20 -15)"><use fill="#c98c81" fill-rule="evenodd" xlink:href="#a"/><use fill="#000" filter="url(#b)" xlink:href="#a"/><path d="m21.0857631 76.959813c0-33.5679204 26.8684717-60.7749172 60.0062783-60.7749172s60.0062786 27.2069968 60.0062786 60.7749172c0 33.56792-26.868472 60.774917-60.0062786 60.774917s-60.0062783-27.206997-60.0062783-60.774917z" stroke="#000" stroke-opacity=".08" stroke-width="2"/><g transform="matrix(-.76604444 .64278761 -.64278761 -.76604444 144.229617 88.276354)"><g fill="#000" fill-opacity=".120952"><path d="m69.9731382 21.2620009c-2.7850688-2.96177-6.5497098-3.9687144-8.4085612-2.2490732-1.8588514 1.7196413-1.1080038 5.5146749 1.6770649 8.476445 2.7850688 2.9617701 6.5497099 3.9687144 8.4085613 2.2490732 1.8588513-1.7196412 1.1080038-5.5146749-1.677065-8.476445zm2.4908487-1.5371987c-1.8998098-2.020345-5.866956-5.0959653-11.7183951-2.8627102 5.9202226-.6348172 9.1978322 2.8507435 10.3764584 4.1041487 1.1786263 1.2534053 3.4606415 3.6802051 2.6387872 9.0208601 2.5801813-4.3531441.6029593-8.2419536-1.2968505-10.2622986z"/><path d="m20.901872 72.0813258c-9.2024917-2.9373633-18.14303713-.8425214-19.96926719 4.6789604-1.82623006 5.5214817 4.15341143 12.3787305 13.35590309 15.3160938 9.2024917 2.9373633 18.1430371.8425214 19.9692672-4.6789604 1.82623-5.5214817-4.1534115-12.3787305-13.3559031-15.3160938zm15.5032824.737068c-5.4021938-5.9303824-16.2256109-7.3716628-26.1019502-5.229403 11.4960102-.3941871 19.681164 4.8751052 22.957274 8.2680348 3.2761099 3.3929296 6.8339184 8.5595391 2.6046408 17.0534435 7.2499004-9.2709563 5.9422291-14.161693.5400354-20.0920753z"/><path d="m82.8518351 84.6182902c3.9402083-4.1891801 4.9165389-9.4959487 2.1806956-11.8529993-2.7358433-2.3570507-8.1478524-.8718163-12.0880606 3.3173638-3.9402083 4.1891802-4.916539 9.4959487-2.1806956 11.8529994 2.7358433 2.3570506 8.1478524.8718162 12.0880606-3.3173639zm6.5373243-15.2162571c-1.9075942-1.9304626-6.4220795-4.0647725-12.7542238 1.0081978 7.6713299-2.381914 10.8657804.2592251 12.1502015 2.8402333 1.2844211 2.5810083.4034403 4.5887222-1.8392672 8.9929265 5.808787-5.962386 4.3508837-10.910895 2.4432895-12.8413576z"/><path d="m21.4047441 18.3492596c3.9402082-4.2667576 4.9165389-9.67179963 2.1806956-12.07249937-2.7358434-2.40069973-8.1478525-.88796099-12.0880607 3.37879654-3.94020823 4.26675753-4.9165389 9.67179963-2.18069558 12.07249933 2.73584328 2.4006997 8.14785238.887961 12.08806068-3.3787965zm6.5373243-15.49803965c-1.9075943-1.96621191-6.4220796-4.14004611-12.7542238 1.02686813 7.6713299-2.42602356 10.8657804.26402551 12.1502015 2.89283023 1.284421 2.62880471.4034403 4.67369849-1.8392673 9.15946209 5.8087871-6.07280048 4.3508838-11.11294855 2.4432896-13.07916045z"/></g><g transform="matrix(-.95630476 .2923717 -.2923717 -.95630476 67.882584 107.640513)"><path d="m9.38234802 11.3547794c5.18172768 0 9.38234798-.8456981 9.38234798-4.42902476 0-3.58332668-1.2224048-6.4881869-9.38234798-6.4881869-8.15994321 0-9.38234802 2.90486022-9.38234802 6.4881869 0 3.58332666 4.20062029 4.42902476 9.38234802 4.42902476z" fill="#c98c81"/><ellipse cx="9.611186" cy="4.170977" fill="#000" fill-opacity=".129076" rx="6.865133" ry="1.853768"/></g></g></g></svg>

<?xml version="1.0" encoding="UTF-8"?>
<svg width="123px" height="124px" viewBox="0 0 123 124" version="1.1" xmlns="http://www.w3.org/2000/svg" xmlns:xlink="http://www.w3.org/1999/xlink">
    <!-- Generator: Sketch 43.2 (39069) - http://www.bohemiancoding.com/sketch -->
    <title>Planet</title>
    <desc>Created with Sketch.</desc>
    <defs>
        <path d="M20.0857631,76.959813 C20.0857631,111.077235 47.399128,138.73473 81.0920414,138.73473 C114.784955,138.73473 142.09832,111.077235 142.09832,76.959813 C142.09832,42.8423911 114.784955,15.1848958 81.0920414,15.1848958 C47.399128,15.1848958 20.0857631,42.8423911 20.0857631,76.959813 Z" id="path-1"></path>
        <filter x="-4.1%" y="-4.0%" width="108.2%" height="108.1%" filterUnits="objectBoundingBox" id="filter-2">
            <feOffset dx="-1" dy="-10" in="SourceAlpha" result="shadowOffsetInner1"></feOffset>
            <feComposite in="shadowOffsetInner1" in2="SourceAlpha" operator="arithmetic" k2="-1" k3="1" result="shadowInnerInner1"></feComposite>
            <feColorMatrix values="0 0 0 0 0   0 0 0 0 0   0 0 0 0 0  0 0 0 0.16553442 0" type="matrix" in="shadowInnerInner1"></feColorMatrix>
        </filter>
    </defs>
    <g id="Illu" stroke="none" stroke-width="1" fill="none" fill-rule="evenodd">
        <g id="BG" transform="translate(-142.000000, -1013.000000)">
            <g id="Top">
                <g id="Planet" transform="translate(122.000000, 998.000000)">
                    <g>
                        <use fill="#C98C81" fill-rule="evenodd" xlink:href="#path-1"></use>
                        <use fill="black" fill-opacity="1" filter="url(#filter-2)" xlink:href="#path-1"></use>
                        <path stroke-opacity="0.08" stroke="#000000" stroke-width="2" d="M21.0857631,76.959813 C21.0857631,43.3918926 47.9542348,16.1848958 81.0920414,16.1848958 C114.229848,16.1848958 141.09832,43.3918926 141.09832,76.959813 C141.09832,110.527733 114.229848,137.73473 81.0920414,137.73473 C47.9542348,137.73473 21.0857631,110.527733 21.0857631,76.959813 Z"></path>
                    </g>
                    <g id="Craters-4" transform="translate(72.352679, 74.180051) rotate(-220.000000) translate(-72.352679, -74.180051) translate(26.352679, 17.180051)">
                        <path d="M69.9731382,21.2620009 C67.1880694,18.3002309 63.4234284,17.2932865 61.564577,19.0129277 C59.7057256,20.732569 60.4565732,24.5276026 63.2416419,27.4893727 C66.0267107,30.4511428 69.7913518,31.4580871 71.6502032,29.7384459 C73.5090545,28.0188047 72.758207,24.223771 69.9731382,21.2620009 L69.9731382,21.2620009 L69.9731382,21.2620009 Z M72.4639869,19.7248022 C70.5641771,17.7044572 66.5970309,14.6288369 60.7455918,16.862092 C66.6658144,16.2272748 69.943424,19.7128355 71.1220502,20.9662407 C72.3006765,22.219646 74.5826917,24.6464458 73.7608374,29.9871008 C76.3410187,25.6339567 74.3637967,21.7451472 72.4639869,19.7248022 L72.4639869,19.7248022 L72.4639869,19.7248022 Z" id="Crater-3" fill-opacity="0.120952219" fill="#000000"></path>
                        <path d="M20.901872,72.0813258 C11.6993803,69.1439625 2.75883487,71.2388044 0.932604809,76.7602862 C-0.893625252,82.2817679 5.08601624,89.1390167 14.2885079,92.07638 C23.4909996,95.0137433 32.431545,92.9189014 34.2577751,87.3974196 C36.0840051,81.8759379 30.1043636,75.0186891 20.901872,72.0813258 L20.901872,72.0813258 Z M36.4051544,72.8183938 C31.0029606,66.8880114 20.1795435,65.446731 10.3032042,67.5889908 C21.7992144,67.1948037 29.9843682,72.464096 33.2604782,75.8570256 C36.5365881,79.2499552 40.0943966,84.4165647 35.865119,92.9104691 C43.1150194,83.6395128 41.8073481,78.7487761 36.4051544,72.8183938 L36.4051544,72.8183938 Z" id="Crater-21" fill-opacity="0.120952219" fill="#000000"></path>
                        <path d="M82.8518351,84.6182902 C86.7920434,80.4291101 87.768374,75.1223415 85.0325307,72.7652909 C82.2966874,70.4082402 76.8846783,71.8934746 72.9444701,76.0826547 C69.0042618,80.2718349 68.0279311,85.5786034 70.7637745,87.9356541 C73.4996178,90.2927047 78.9116269,88.8074703 82.8518351,84.6182902 L82.8518351,84.6182902 L82.8518351,84.6182902 Z M89.3891594,69.4020331 C87.4815652,67.4715705 82.9670799,65.3372606 76.6349356,70.4102309 C84.3062655,68.0283169 87.500716,70.669456 88.7851371,73.2504642 C90.0695582,75.8314725 89.1885774,77.8391864 86.9458699,82.2433907 C92.7546569,76.2810047 91.2967536,71.3324957 89.3891594,69.4020331 L89.3891594,69.4020331 Z" id="Crater-10" fill-opacity="0.120952219" fill="#000000"></path>
                        <path d="M21.4047441,18.3492596 C25.3449523,14.082502 26.321283,8.67745997 23.5854397,6.27676023 C20.8495963,3.8760605 15.4375872,5.38879924 11.497379,9.65555677 C7.55717077,13.9223143 6.5808401,19.3273564 9.31668342,21.7280561 C12.0525267,24.1287558 17.4645358,22.6160171 21.4047441,18.3492596 L21.4047441,18.3492596 L21.4047441,18.3492596 Z M27.9420684,2.85121995 C26.0344741,0.885008043 21.5199888,-1.28882616 15.1878446,3.87808808 C22.8591745,1.45206452 26.053625,4.14211359 27.3380461,6.77091831 C28.6224671,9.39972302 27.7414864,11.4446168 25.4987788,15.9303804 C31.3075659,9.85757992 29.8496626,4.81743185 27.9420684,2.85121995 L27.9420684,2.85121995 Z" id="Crater-11" fill-opacity="0.120952219" fill="#000000"></path>
                        <g id="Pump-2" transform="translate(57.043459, 104.680216) rotate(163.000000) translate(-57.043459, -104.680216) translate(47.543459, 98.680216)">
                            <path d="M9.38234802,11.3547794 C14.5640757,11.3547794 18.764696,10.5090813 18.764696,6.92575464 C18.764696,3.34242796 17.5422912,0.437567735 9.38234802,0.437567735 C1.22240481,0.437567735 -4.84330368e-15,3.34242796 -4.84330368e-15,6.92575464 C-4.84330368e-15,10.5090813 4.20062029,11.3547794 9.38234802,11.3547794 Z" id="Oval-27" fill="#C98C81"></path>
                            <ellipse id="Oval-28" fill-opacity="0.129076087" fill="#000000" cx="9.61118577" cy="4.1709773" rx="6.86513269" ry="1.85376769"></ellipse>
                        </g>
                    </g>
                </g>
            </g>
        </g>
    </g>
</svg>
